Newaita/actions/22/distribute-vertical-bottom.svg

<svg height="22" viewBox="0 0 22 22" width="22" xmlns="http://www.w3.org/2000/svg"><g fill="#424242"><path d="m20.011719 12.453125h-3.640625l1.820312-2.277344zm0 0"/><path d="m15.464844 19.273438c0 .503906-.40625.910156-.910156.910156h-4.550782c-.503906 0-.90625-.40625-.90625-.910156v-4.546876c0-.503906.402344-.910156.90625-.910156h4.550782c.503906 0 .910156.40625.910156.910156zm-1.820313-1.363282v-1.820312c0-.253906-.203125-.453125-.457031-.453125h-1.816406c-.253906 0-.457032.199219-.457032.453125v1.820312c0 .25.203126.453125.457032.453125h1.816406c.253906 0 .457031-.203125.457031-.453125zm0 0"/><path d="m20.011719 19.726562v-.90625c0-.253906-.203125-.457031-.457031-.457031h-17.28125c-.25 0-.453126.203125-.453126.457031v.90625c0 .253907.203126.457032.453126.457032h17.28125c.253906 0 .457031-.203125.457031-.457032zm0 0"/><path d="m15.464844 7.449219c0 .503906-.40625.910156-.910156.910156h-7.734376c-.503906 0-.90625-.40625-.90625-.910156v-4.546875c0-.503906.402344-.910156.90625-.910156h7.734376c.503906 0 .910156.40625.910156.910156zm-1.820313-1.363281v-1.820313c0-.253906-.203125-.457031-.457031-.457031h-5c-.253906 0-.457031.203125-.457031.457031v1.820313c0 .25.203125.453124.457031.453124h5c.253906 0 .457031-.203124.457031-.453124zm0 0"/><path d="m20.011719 7.902344v-.910156c0-.25-.203125-.453126-.457031-.453126h-17.28125c-.25 0-.453126.203126-.453126.453126v.910156c0 .253906.203126.457031.453126.457031h17.28125c.253906 0 .457031-.203125.457031-.457031zm0 0"/><path d="m20.011719 14.269531h-3.640625l1.820312 2.273438zm0 0"/></g></svg>

<?xml version="1.0" encoding="UTF-8"?>
<svg xmlns="http://www.w3.org/2000/svg" xmlns:xlink="http://www.w3.org/1999/xlink" width="22px" height="22px" viewBox="0 0 22 22" version="1.1">
<g id="surface1">
<path style=" stroke:none;fill-rule:nonzero;fill:rgb(25.882354%,25.882354%,25.882354%);fill-opacity:1;" d="M 20.011719 12.453125 L 16.371094 12.453125 L 18.191406 10.175781 Z M 20.011719 12.453125 "/>
<path style=" stroke:none;fill-rule:nonzero;fill:rgb(25.882354%,25.882354%,25.882354%);fill-opacity:1;" d="M 15.464844 19.273438 C 15.464844 19.777344 15.058594 20.183594 14.554688 20.183594 L 10.003906 20.183594 C 9.5 20.183594 9.097656 19.777344 9.097656 19.273438 L 9.097656 14.726562 C 9.097656 14.222656 9.5 13.816406 10.003906 13.816406 L 14.554688 13.816406 C 15.058594 13.816406 15.464844 14.222656 15.464844 14.726562 Z M 13.644531 17.910156 L 13.644531 16.089844 C 13.644531 15.835938 13.441406 15.636719 13.1875 15.636719 L 11.371094 15.636719 C 11.117188 15.636719 10.914062 15.835938 10.914062 16.089844 L 10.914062 17.910156 C 10.914062 18.160156 11.117188 18.363281 11.371094 18.363281 L 13.1875 18.363281 C 13.441406 18.363281 13.644531 18.160156 13.644531 17.910156 Z M 13.644531 17.910156 "/>
<path style=" stroke:none;fill-rule:nonzero;fill:rgb(25.882354%,25.882354%,25.882354%);fill-opacity:1;" d="M 20.011719 19.726562 L 20.011719 18.820312 C 20.011719 18.566406 19.808594 18.363281 19.554688 18.363281 L 2.273438 18.363281 C 2.023438 18.363281 1.820312 18.566406 1.820312 18.820312 L 1.820312 19.726562 C 1.820312 19.980469 2.023438 20.183594 2.273438 20.183594 L 19.554688 20.183594 C 19.808594 20.183594 20.011719 19.980469 20.011719 19.726562 Z M 20.011719 19.726562 "/>
<path style=" stroke:none;fill-rule:nonzero;fill:rgb(25.882354%,25.882354%,25.882354%);fill-opacity:1;" d="M 15.464844 7.449219 C 15.464844 7.953125 15.058594 8.359375 14.554688 8.359375 L 6.820312 8.359375 C 6.316406 8.359375 5.914062 7.953125 5.914062 7.449219 L 5.914062 2.902344 C 5.914062 2.398438 6.316406 1.992188 6.820312 1.992188 L 14.554688 1.992188 C 15.058594 1.992188 15.464844 2.398438 15.464844 2.902344 Z M 13.644531 6.085938 L 13.644531 4.265625 C 13.644531 4.011719 13.441406 3.808594 13.1875 3.808594 L 8.1875 3.808594 C 7.933594 3.808594 7.730469 4.011719 7.730469 4.265625 L 7.730469 6.085938 C 7.730469 6.335938 7.933594 6.539062 8.1875 6.539062 L 13.1875 6.539062 C 13.441406 6.539062 13.644531 6.335938 13.644531 6.085938 Z M 13.644531 6.085938 "/>
<path style=" stroke:none;fill-rule:nonzero;fill:rgb(25.882354%,25.882354%,25.882354%);fill-opacity:1;" d="M 20.011719 7.902344 L 20.011719 6.992188 C 20.011719 6.742188 19.808594 6.539062 19.554688 6.539062 L 2.273438 6.539062 C 2.023438 6.539062 1.820312 6.742188 1.820312 6.992188 L 1.820312 7.902344 C 1.820312 8.15625 2.023438 8.359375 2.273438 8.359375 L 19.554688 8.359375 C 19.808594 8.359375 20.011719 8.15625 20.011719 7.902344 Z M 20.011719 7.902344 "/>
<path style=" stroke:none;fill-rule:nonzero;fill:rgb(25.882354%,25.882354%,25.882354%);fill-opacity:1;" d="M 20.011719 14.269531 L 16.371094 14.269531 L 18.191406 16.542969 Z M 20.011719 14.269531 "/>
</g>
</svg>
